;FLAVOR:Marlin
;TIME:10352
;Filament used: 9.33944m
;Layer height: 0.2
;MINX:59.701
;MINY:60.347
;MINZ:0.2
;MAXX:162.408
;MAXY:162.627
;MAXZ:28.2
;TARGET_MACHINE.NAME:Creality Ender-3 S1 Pro
;Generated with Cura_SteamEngine 5.11.0
; Ender 3 S1 Pro Start G-code
; M413 S0 ; Disable power loss recovery
G92 E0 ; Reset Extruder

; Prep surfaces before auto home for better accuracy
M140 S60
M104 S200

G28 ; Home all axes
G1 Z10.0 F3000 ; Move Z Axis up little to prevent scratching of Heat Bed
G1 X0 Y0

M190 S60
M109 S200

G1 X0.1 Y20 Z0.3 F5000.0 ; Move to start position
G1 X0.1 Y200.0 Z0.3 F1500.0 E15 ; Draw the first line
G1 X0.4 Y200.0 Z0.3 F5000.0 ; Move to side a little
G1 X0.4 Y20 Z0.3 F1500.0 E30 ; Draw the second line
G92 E0 ; Reset Extruder
G1 Z2.0 F3000 ; Move Z Axis up little to prevent scratching of Heat Bed
G1 X5 Y20 Z0.3 F5000.0 ; Move over to prevent blob squish

M82 ;absolute extrusion mode
G92 E0
G92 E0
G1 F2400 E-0.8
;LAYER_COUNT:141
;LAYER:0
M107
M204 S2000
G0 F7500 X71.733 Y70.709 Z0.2
M204 S500
;TYPE:SKIRT
G1 F2400 E0
G1 F1500 X71.807 Y70.648 E0.00319
G1 X72.056 Y70.397 E0.01495
G1 X72.798 Y69.769 E0.04728
G1 X73.593 Y69.208 E0.07964
G1 X74.397 Y68.739 E0.1106
G1 X74.865 Y68.506 E0.12799
G1 X75.29 Y68.312 E0.14353
G1 X76.311 Y67.884 E0.18035
G1 X77.249 Y67.55 E0.21347
G1 X78.122 Y67.321 E0.24349
G1 X78.736 Y67.205 E0.26427
G1 X79.909 Y67.019 E0.30377
G1 X126.02 Y60.537 E1.85251
G1 X126.933 Y60.422 E1.88311
G1 X127.903 Y60.347 E1.91547
G1 X128.863 Y60.356 E1.9474
G1 X129.426 Y60.4 E1.96619
G1 X130.175 Y60.479 E1.99124
G1 X130.865 Y60.57 E2.01438
G1 X131.865 Y60.758 E2.04823
G1 X132.801 Y61.023 E2.08058
G1 X133.712 Y61.369 E2.11299
G1 X134.588 Y61.793 E2.14536
G1 X135.364 Y62.255 E2.1754
G1 X136.186 Y62.849 E2.20913
G1 X137.12 Y63.681 E2.25073
G1 X137.501 Y64.076 E2.26899
G1 X137.86 Y64.473 E2.28679
G1 X138.44 Y65.153 E2.31652
G1 X139.034 Y65.925 E2.34891
G1 X139.521 Y66.685 E2.37894
G1 X139.82 Y67.231 E2.39964
G1 X140.348 Y68.265 E2.43826
G1 X160.804 Y110.204 E3.99024
G1 X161.166 Y110.976 E4.0186
G1 X161.525 Y111.844 E4.04984
G1 X161.824 Y112.792 E4.0829
G1 X161.953 Y113.333 E4.1014
G1 X162.112 Y114.083 E4.1269
G1 X162.243 Y114.784 E4.15062
G1 X162.368 Y115.749 E4.18298
G1 X162.408 Y116.723 E4.2154
G1 X162.368 Y117.625 E4.24543
G1 X162.228 Y118.66 E4.28017
G1 X162.012 Y119.61 E4.31257
G1 X161.721 Y120.511 E4.34407
G1 X161.134 Y121.825 E4.39193
G1 X160.813 Y122.404 E4.41395
G1 X160.224 Y123.374 E4.4517
G1 X159.674 Y124.177 E4.48407
G1 X159.065 Y124.919 E4.51599
G1 X158.668 Y125.338 E4.53519
G1 X157.832 Y126.173 E4.57449
G1 X124.205 Y158.646 E6.1293
G1 X123.674 Y159.143 E6.15349
G1 X122.919 Y159.786 E6.18647
G1 X122.161 Y160.327 E6.21745
G1 X121.664 Y160.631 E6.23683
G1 X120.74 Y161.159 E6.27222
G1 X120.357 Y161.362 E6.28664
G1 X119.477 Y161.779 E6.31903
G1 X118.564 Y162.116 E6.3514
G1 X117.623 Y162.372 E6.38383
G1 X116.734 Y162.533 E6.41388
G1 X115.694 Y162.627 E6.44861
G1 X114.709 Y162.625 E6.48137
G1 X113.445 Y162.494 E6.52364
G1 X112.766 Y162.367 E6.54661
G1 X112.182 Y162.237 E6.56651
G1 X111.577 Y162.089 E6.58723
G1 X110.645 Y161.814 E6.61955
G1 X109.804 Y161.486 E6.64957
G1 X109.231 Y161.214 E6.67067
G1 X108.188 Y160.682 E6.70961
G1 X66.91 Y138.735 E8.26452
G1 X66.277 Y138.387 E8.28854
G1 X65.432 Y137.868 E8.32153
G1 X64.682 Y137.314 E8.35254
G1 X64.224 Y136.923 E8.37257
G1 X63.433 Y136.201 E8.40819
G1 X63.137 Y135.914 E8.4219
G1 X62.468 Y135.206 E8.4543
G1 X61.865 Y134.442 E8.48667
G1 X61.332 Y133.627 E8.51906
G1 X60.872 Y132.768 E8.55147
G1 X60.492 Y131.872 E8.58384
G1 X60.19 Y130.945 E8.61627
G1 X59.986 Y130.065 E8.64631
G1 X59.878 Y129.377 E8.66947
G1 X59.82 Y128.894 E8.68565
G1 X59.73 Y127.802 E8.7221
G1 X59.701 Y126.899 E8.75215
G1 X59.758 Y125.87 E8.78642
G1 X59.834 Y125.287 E8.80598
G1 X60.017 Y124.137 E8.84471
G1 X68.145 Y78.042 E10.40149
G1 X68.272 Y77.381 E10.42387
G1 X68.498 Y76.433 E10.45629
G1 X68.793 Y75.549 E10.48728
G1 X69.028 Y74.981 E10.50773
G1 X69.354 Y74.249 E10.53438
G1 X69.707 Y73.514 E10.5615
G1 X70.198 Y72.643 E10.59476
G1 X70.727 Y71.872 E10.62586
G1 X71.272 Y71.2 E10.65463
G1 X71.733 Y70.709 E10.67703
M204 S2000
G0 F7500 X72.025 Y70.983
M204 S500
G1 F1500 X72.06 Y70.96 E10.67843
G1 X72.315 Y70.702 E10.69049
G1 X73.029 Y70.096 E10.72164
G1 X73.795 Y69.554 E10.75285
G1 X74.599 Y69.085 E10.78381
G1 X75.031 Y68.87 E10.79986
G1 X75.445 Y68.681 E10.81499
G1 X76.446 Y68.261 E10.8511
G1 X77.35 Y67.937 E10.88304
G1 X78.223 Y67.708 E10.91306
G1 X78.799 Y67.6 E10.93255
G1 X79.965 Y67.415 E10.97182
G1 X126.07 Y60.934 E12.52035
G1 X126.965 Y60.821 E12.55036
G1 X127.9 Y60.747 E12.58155
G1 X128.832 Y60.755 E12.61255
G1 X129.384 Y60.798 E12.63097
G1 X130.123 Y60.876 E12.65568
G1 X130.813 Y60.967 E12.67883
G1 X131.757 Y61.143 E12.71077
G1 X132.66 Y61.397 E12.74197
G1 X133.538 Y61.729 E12.77319
G1 X134.383 Y62.137 E12.8044
G1 X135.159 Y62.599 E12.83444
G1 X135.92 Y63.148 E12.86565
G1 X136.854 Y63.98 E12.90725
G1 X137.204 Y64.344 E12.92404
G1 X137.556 Y64.733 E12.94149
G1 X138.123 Y65.398 E12.97056
G1 X138.697 Y66.141 E13.00179
G1 X139.184 Y66.901 E13.03181
G1 X139.464 Y67.413 E13.05122
G1 X139.988 Y68.44 E13.08957
G1 X160.442 Y110.374 E14.64137
G1 X160.796 Y111.129 E14.6691
G1 X161.155 Y111.997 E14.70034
G1 X161.435 Y112.885 E14.73131
G1 X161.562 Y113.416 E14.74947
G1 X161.719 Y114.157 E14.77466
G1 X161.846 Y114.836 E14.79764
G1 X161.968 Y115.766 E14.82883
G1 X162.008 Y116.705 E14.86009
G1 X161.968 Y117.607 E14.89012
G1 X161.838 Y118.572 E14.92251
G1 X161.631 Y119.487 E14.95371
G1 X161.34 Y120.388 E14.9852
G1 X160.784 Y121.631 E15.03049
G1 X160.471 Y122.197 E15.05201
G1 X159.894 Y123.148 E15.089
G1 X159.365 Y123.923 E15.12021
G1 X158.774 Y124.644 E15.15122
G1 X158.385 Y125.055 E15.17004
G1 X157.554 Y125.885 E15.20911
G1 X123.931 Y158.354 E16.76372
G1 X123.414 Y158.839 E16.7873
G1 X122.687 Y159.46 E16.8191
G1 X121.929 Y160.001 E16.85008
G1 X121.466 Y160.284 E16.86813
G1 X120.552 Y160.806 E16.90313
G1 X120.185 Y161.001 E16.91696
G1 X119.338 Y161.404 E16.94815
G1 X118.458 Y161.73 E16.97937
G1 X117.552 Y161.978 E17.01061
G1 X116.663 Y162.139 E17.04066
G1 X115.694 Y162.227 E17.07302
G1 X114.75 Y162.227 E17.10442
G1 X113.519 Y162.101 E17.14557
G1 X112.852 Y161.976 E17.16814
G1 X112.277 Y161.849 E17.18773
G1 X111.69 Y161.705 E17.20783
G1 X110.79 Y161.441 E17.23903
G1 X109.949 Y161.113 E17.26905
G1 X109.413 Y160.858 E17.28879
G1 X108.376 Y160.329 E17.32751
G1 X67.103 Y138.384 E18.88224
G1 X66.47 Y138.036 E18.90627
G1 X65.67 Y137.546 E18.93747
G1 X64.92 Y136.992 E18.96848
G1 X64.494 Y136.627 E18.98714
G1 X63.711 Y135.913 E19.02238
G1 X63.427 Y135.639 E19.03551
G1 X62.782 Y134.958 E19.06671
G1 X62.199 Y134.222 E19.09794
G1 X61.684 Y133.438 E19.12913
G1 X61.24 Y132.611 E19.16035
G1 X60.872 Y131.748 E19.19156
G1 X60.58 Y130.855 E19.22281
G1 X60.376 Y129.975 E19.25285
G1 X60.275 Y129.329 E19.2746
G1 X60.219 Y128.861 E19.29028
G1 X60.13 Y127.789 E19.32605
G1 X60.101 Y126.886 E19.3561
G1 X60.155 Y125.921 E19.38825
G1 X60.229 Y125.35 E19.4074
G1 X60.411 Y124.206 E19.44593
G1 X68.538 Y78.117 E21.0025
G1 X68.661 Y77.473 E21.02431
G1 X68.877 Y76.56 E21.05551
G1 X69.172 Y75.676 E21.08651
G1 X69.393 Y75.144 E21.10567
G1 X69.715 Y74.422 E21.13196
G1 X70.056 Y73.71 E21.15822
G1 X70.528 Y72.869 E21.1903
G1 X71.057 Y72.098 E21.2214
G1 X71.564 Y71.474 E21.24814
G1 X72.025 Y70.983 E21.27054
M204 S2000
G0 F7500 X72.317 Y71.257
M204 S500
G1 F1500 X72.323 Y71.263 E21.27082
G1 X72.574 Y71.007 E21.28275
G1 X73.261 Y70.422 E21.31276
G1 X73.997 Y69.899 E21.34279
G1 X74.777 Y69.443 E21.37284
G1 X75.197 Y69.234 E21.38844
G1 X75.6 Y69.05 E21.40318
G1 X76.601 Y68.63 E21.43928
G1 X77.451 Y68.324 E21.46933
G1 X78.324 Y68.095 E21.49935
G1 X78.862 Y67.995 E21.51755
G1 X80.021 Y67.811 E21.55658
G1 X126.12 Y61.331 E23.10491
G1 X126.997 Y61.22 E23.13431
G1 X127.897 Y61.147 E23.16435
G1 X128.801 Y61.154 E23.19441
G1 X129.342 Y61.196 E23.21246
G1 X130.071 Y61.273 E23.23684
G1 X130.761 Y61.364 E23.25999
G1 X131.649 Y61.528 E23.29003
G1 X132.519 Y61.771 E23.32007
G1 X133.364 Y62.089 E23.3501
G1 X134.178 Y62.481 E23.38015
G1 X134.954 Y62.943 E23.41019
G1 X135.686 Y63.472 E23.44023
G1 X136.566 Y64.257 E23.47945
G1 X136.907 Y64.612 E23.49582
G1 X137.252 Y64.993 E23.51291
G1 X137.807 Y65.643 E23.54134
G1 X138.36 Y66.357 E23.57138
G1 X138.847 Y67.117 E23.6014
G1 X139.108 Y67.595 E23.61952
G1 X139.628 Y68.615 E23.6576
G1 X160.08 Y110.544 E25.20922
G1 X160.427 Y111.283 E25.23637
G1 X160.774 Y112.117 E25.26642
G1 X161.046 Y112.978 E25.29645
G1 X161.171 Y113.499 E25.31427
G1 X161.326 Y114.23 E25.33912
G1 X161.449 Y114.889 E25.36142
G1 X161.568 Y115.784 E25.39145
G1 X161.608 Y116.687 E25.42151
G1 X161.568 Y117.589 E25.45154
G1 X161.448 Y118.484 E25.48158
G1 X161.25 Y119.365 E25.51161
G1 X160.975 Y120.225 E25.54164
G1 X160.434 Y121.438 E25.58582
G1 X160.129 Y121.99 E25.60679
G1 X159.563 Y122.923 E25.64309
G1 X159.055 Y123.67 E25.67313
G1 X158.483 Y124.369 E25.70317
G1 X158.102 Y124.772 E25.72162
G1 X157.276 Y125.597 E25.76045
G1 X123.657 Y158.062 E27.31488
G1 X123.14 Y158.547 E27.33846
G1 X122.454 Y159.135 E27.36851
G1 X121.72 Y159.66 E27.39852
G1 X121.268 Y159.937 E27.41615
G1 X120.364 Y160.453 E27.45078
G1 X120.013 Y160.64 E27.464
G1 X119.198 Y161.029 E27.49404
G1 X118.352 Y161.344 E27.52406
G1 X117.481 Y161.584 E27.55411
G1 X116.592 Y161.745 E27.58416
G1 X115.693 Y161.827 E27.61419
G1 X114.79 Y161.829 E27.64422
G1 X113.593 Y161.708 E27.68424
G1 X112.938 Y161.585 E27.7064
G1 X112.372 Y161.46 E27.72568
G1 X111.802 Y161.321 E27.7452
G1 X110.935 Y161.068 E27.77524
G1 X110.094 Y160.74 E27.80526
G1 X109.595 Y160.502 E27.82365
G1 X108.564 Y159.976 E27.86214
G1 X67.296 Y138.034 E29.41668
G1 X66.678 Y137.694 E29.44014
G1 X65.907 Y137.224 E29.47017
G1 X65.18 Y136.688 E29.50021
G1 X64.763 Y136.331 E29.51847
G1 X63.988 Y135.625 E29.55334
G1 X63.717 Y135.364 E29.56585
G1 X63.095 Y134.709 E29.59589
G1 X62.533 Y134.002 E29.62593
G1 X62.036 Y133.248 E29.65597
G1 X61.608 Y132.453 E29.686
G1 X61.252 Y131.623 E29.71604
G1 X60.97 Y130.765 E29.74608
G1 X60.766 Y129.885 E29.77612
G1 X60.672 Y129.282 E29.79642
G1 X60.618 Y128.828 E29.81163
G1 X60.53 Y127.776 E29.84674
G1 X60.501 Y126.873 E29.87679
G1 X60.552 Y125.972 E29.9068
G1 X60.624 Y125.413 E29.92555
G1 X60.805 Y124.275 E29.96388
G1 X68.931 Y78.192 E31.52025
G1 X69.05 Y77.565 E31.54148
G1 X69.257 Y76.686 E31.57151
G1 X69.542 Y75.829 E31.60155
G1 X69.758 Y75.307 E31.62034
G1 X70.076 Y74.595 E31.64627
G1 X70.417 Y73.883 E31.67253
G1 X70.858 Y73.095 E31.70257
G1 X71.368 Y72.35 E31.73259
G1 X71.856 Y71.748 E31.75837
G1 X72.317 Y71.257 E31.78077
M204 S2000
G1 F2400 E30.98077
;MESH:Low_Poly_Tray.stl
G0 F7500 X78.999 Y78.475
G0 X79.989 Y78.941
G0 X73.097 Y126.891
G0 X110 Y146.701
M204 S500
;TYPE:WALL-INNER
G1 F2400 E31.78077
G1 F1500 X114.885 Y149.298 E31.96478
G1 X149.085 Y116.275 E33.546
G1 X128.242 Y73.546 E35.12724
G1 X81.165 Y80.164 E36.70842
G1 X72.91 Y126.982 E38.28962
G1 X110 Y146.701 E39.68674
M204 S2000
G0 F7500 X110 Y147.154
M204 S500
G1 F1500 X114.954 Y149.788 E39.87336
G1 X149.571 Y116.361 E41.47389
G1 X128.474 Y73.11 E43.07444
G1 X80.821 Y79.808 E44.67496
G1 X72.466 Y127.199 E46.2755
G1 X110 Y147.154 E47.68935
M204 S2000
G0 F7500 X110 Y147.607
M204 S500
G1 F1500 X115.023 Y150.277 E47.87856
G1 X150.058 Y116.447 E49.4984
G1 X128.707 Y72.673 E51.11829
G1 X80.478 Y79.452 E52.73816
G1 X72.021 Y127.415 E54.35802
G1 X110 Y147.607 E55.78864
M204 S2000
G0 F7500 X110 Y148.06
M204 S500
G1 F1500 X115.092 Y150.767 E55.98045
G1 X150.545 Y116.533 E57.61963
G1 X128.939 Y72.237 E59.25884
G1 X80.134 Y79.097 E60.89805
G1 X71.577 Y127.632 E62.53723
G1 X110 Y148.06 E63.98457
M204 S2000
G0 F7500 X110 Y148.513
M204 S500
;TYPE:WALL-OUTER
G1 F1500 X115.051 Y151.198 E64.17483
G1 X115.157 Y151.223 E64.17846
G1 X115.251 Y151.17 E64.18204
G1 X150.941 Y116.707 E65.83219
G1 X150.997 Y116.611 E65.83588
G1 X150.976 Y116.505 E65.83948
G1 X129.227 Y71.915 E67.48956
G1 X129.158 Y71.833 E67.49312
G1 X129.042 Y71.818 E67.49701
G1 X79.922 Y78.723 E69.14681
G1 X79.816 Y78.767 E69.15063
G1 X79.769 Y78.866 E69.15428
G1 X71.154 Y127.725 E70.8044
G1 X71.165 Y127.834 E70.80805
G1 X71.242 Y127.907 E70.81157
G1 X110 Y148.513 E72.27154
M204 S2000
G0 F7500 X110.332 Y147.889
G0 X109.878 Y146.521
G0 X110 Y146.292
M204 S500
;TYPE:SKIN
G1 F1500 X73.307 Y126.783 E73.65372
G1 X81.472 Y80.482 E75.21746
G1 X128.031 Y73.939 E76.78124
G1 X148.644 Y116.197 E78.34504
G1 X114.821 Y148.855 E79.90881
G1 X110 Y146.292 E80.09041
M204 S2000
G1 F2400 E79.29041
G0 F7500 X109.878 Y146.521
G0 X73.097 Y126.891
G0 X73.161 Y126.139
G0 X73.609 Y126.218
M204 S500
G1 F2400 E80.09041
G1 F1500 X74.676 Y127.285 E80.1406
M204 S2000
G0 F7500 X74.46 Y127.692
G0 X75.668 Y128.334
G0 X75.884 Y127.927
M204 S500
G1 F1500 X73.694 Y125.737 E80.24361
M204 S2000
G0 F7500 X73.779 Y125.256
M204 S500
G1 F1500 X77.092 Y128.569 E80.39945
M204 S2000
G0 F7500 X76.875 Y128.976
G0 X78.083 Y129.618
G0 X78.299 Y129.211
M204 S500
G1 F1500 X73.864 Y124.775 E80.60808
M204 S2000
G0 F7500 X73.949 Y124.295
M204 S500
G1 F1500 X79.507 Y129.853 E80.86951
M204 S2000
G0 F7500 X79.291 Y130.26
G0 X80.5 Y130.903
G0 X80.716 Y130.496
M204 S500
G1 F1500 X74.033 Y123.814 E81.18383
M204 S2000
G0 F7500 X74.118 Y123.333
M204 S500
G1 F1500 X81.923 Y131.138 E81.55096
M204 S2000
G0 F7500 X81.707 Y131.545
G0 X82.915 Y132.187
G0 X83.131 Y131.78
M204 S500
G1 F1500 X74.203 Y122.852 E81.9709
M204 S2000
G0 F7500 X74.288 Y122.371
M204 S500
G1 F1500 X84.339 Y132.422 E82.44367
M204 S2000
G0 F7500 X84.123 Y132.829
G0 X85.33 Y133.471
G0 X85.546 Y133.064
M204 S500
G1 F1500 X74.373 Y121.89 E82.96924
M204 S2000
G0 F7500 X74.458 Y121.41
M204 S500
G1 F1500 X86.754 Y133.706 E83.5476
M204 S2000
G0 F7500 X86.538 Y134.113
G0 X87.746 Y134.755
G0 X87.962 Y134.348
M204 S500
G1 F1500 X74.542 Y120.929 E84.17882
M204 S2000
G0 F7500 X74.627 Y120.448
M204 S500
G1 F1500 X89.17 Y134.99 E84.86285
M204 S2000
G0 F7500 X88.953 Y135.397
G0 X90.161 Y136.039
G0 X90.377 Y135.632
M204 S500
G1 F1500 X74.712 Y119.967 E85.59968
M204 S2000
G0 F7500 X74.796 Y119.485
M204 S500
G1 F1500 X91.585 Y136.274 E86.38939
M204 S2000
G0 F7500 X91.369 Y136.681
G0 X92.576 Y137.323
G0 X92.793 Y136.916
M204 S500
G1 F1500 X74.881 Y119.005 E87.23189
M204 S2000
G0 F7500 X74.966 Y118.524
M204 S500
G1 F1500 X94.001 Y137.558 E88.12721
M204 S2000
G0 F7500 X93.784 Y137.966
G0 X94.993 Y138.608
G0 X95.209 Y138.201
M204 S500
G1 F1500 X75.051 Y118.043 E89.07538
M204 S2000
G0 F7500 X75.136 Y117.562
M204 S500
G1 F1500 X96.417 Y138.843 E90.07638
M204 S2000
G0 F7500 X96.201 Y139.25
G0 X97.408 Y139.892
G0 X97.625 Y139.485
M204 S500
G1 F1500 X75.221 Y117.081 E91.13019
M204 S2000
G0 F7500 X75.305 Y116.6
M204 S500
G1 F1500 X98.832 Y140.127 E92.23683
M204 S2000
G0 F7500 X98.616 Y140.534
G0 X99.824 Y141.176
G0 X100.04 Y140.769
M204 S500
G1 F1500 X75.39 Y116.12 E93.39627
M204 S2000
G0 F7500 X75.475 Y115.639
M204 S500
G1 F1500 X101.248 Y141.411 E94.60853
M204 S2000
G0 F7500 X101.031 Y141.818
G0 X102.24 Y142.461
G0 X102.456 Y142.054
M204 S500
G1 F1500 X75.56 Y115.158 E95.87363
M204 S2000
G0 F7500 X75.645 Y114.677
M204 S500
G1 F1500 X103.663 Y142.696 E97.19154
M204 S2000
G0 F7500 X103.447 Y143.102
G0 X104.655 Y143.745
G0 X104.871 Y143.338
M204 S500
G1 F1500 X75.73 Y114.196 E98.56226
M204 S2000
G0 F7500 X75.815 Y113.715
M204 S500
G1 F1500 X106.079 Y143.98 E99.98581
M204 S2000
G0 F7500 X105.863 Y144.387
G0 X107.07 Y145.029
G0 X107.286 Y144.622
M204 S500
G1 F1500 X75.899 Y113.235 E101.46216
M204 S2000
